X: 2
T: The Cape Breton Fiddlers' Society's Welcome To The Shetland Islands
R: reel
M: 4/4
L: 1/8
K: Amaj
fg|ae(3eee efed|ce(3eee fece|bffe fgfe|defd B2ed|cdBc ABGA|FGEF DECD|BCDE FABc|defg a2||


Tune 1048	Setting 21854

